public/images/hashed/3381124278c92c874952b07058672a21.svg

<?xml version="1.0" encoding="UTF-8"?>
<svg width="80px" height="80px" viewBox="0 0 80 80" version="1.1" xmlns="http://www.w3.org/2000/svg" xmlns:xlink="http://www.w3.org/1999/xlink">
    <!-- Generator: Sketch 64 (93537) - https://sketch.com -->
    <title>Icon-Architecture/64/Arch_Amazon-Virtual-Private-Cloud_64</title>
    <desc>Created with Sketch.</desc>
    <defs>
        <linearGradient x1="0%" y1="100%" x2="100%" y2="0%" id="linearGradient-1">
            <stop stop-color="#4D27A8" offset="0%"></stop>
            <stop stop-color="#A166FF" offset="100%"></stop>
        </linearGradient>
    </defs>
    <g id="Icon-Architecture/64/Arch_Amazon-Virtual-Private-Cloud_64" stroke="none" stroke-width="1" fill="none" fill-rule="evenodd">
        <g id="Icon-Architecture-BG/64/Networking-Content-Delivery" fill="url(#linearGradient-1)">
            <rect id="Rectangle" x="0" y="0" width="80" height="80"></rect>
        </g>
        <path d="M61,41.3717025 L55.5,39.1717025 L55.5,59.1227025 C57.106,58.9627025 58.401,58.4347025 59.321,57.5007025 C61.021,55.7727025 61.001,53.2397025 61,53.2147025 L61,41.3717025 Z M53.5,59.1357025 L53.5,39.1717025 L48,41.3717025 L48,53.1947025 C48.007,53.4017025 48.234,58.5517025 53.5,59.1357025 L53.5,59.1357025 Z M63,53.1947025 C63.003,53.3077025 63.053,56.5417025 60.765,58.8847025 C59.269,60.4177025 57.16,61.1947025 54.5,61.1947025 C47.927,61.1947025 46.065,55.9767025 46,53.2187025 L46,40.6947025 C46,40.2857025 46.249,39.9177025 46.629,39.7657025 L54.129,36.7657025 C54.367,36.6707025 54.633,36.6707025 54.871,36.7657025 L62.371,39.7657025 C62.751,39.9177025 63,40.2857025 63,40.6947025 L63,53.1947025 Z M66.001,51.2287025 L66,37.8717025 L54.5,33.2717025 L43,37.8717025 L43,51.1947025 C42.998,51.2857025 42.865,57.4227025 46.534,61.1987025 C48.466,63.1867025 51.146,64.1947025 54.5,64.1947025 C57.877,64.1947025 60.57,63.1797025 62.504,61.1787025 C66.168,57.3867025 66.003,51.2897025 66.001,51.2287025 L66.001,51.2287025 Z M63.942,62.5677025 C61.617,64.9747025 58.44,66.1947025 54.5,66.1947025 C50.579,66.1947025 47.413,64.9787025 45.09,62.5807025 C40.831,58.1877025 40.991,51.4477025 41,51.1637025 L41,37.1947025 C41,36.7857025 41.249,36.4177025 41.629,36.2657025 L54.129,31.2657025 C54.367,31.1707025 54.633,31.1707025 54.871,31.2657025 L67.371,36.2657025 C67.751,36.4177025 68,36.7857025 68,37.1947025 L68,51.1947025 C68.009,51.4447025 68.189,58.1727025 63.942,62.5677025 L63.942,62.5677025 Z M23.055,47.1947025 L38,47.1947025 L38,49.1947025 L23.055,49.1947025 C16.977,49.1947025 12.337,45.1427025 12.024,39.5597025 C12.002,39.3317025 12,39.0657025 12,38.7997025 C12,31.9307025 16.803,29.4017025 19.604,28.5117025 C19.584,28.1907025 19.574,27.8657025 19.574,27.5387025 C19.574,22.0857025 23.464,16.3807025 28.621,14.2687025 C34.677,11.7887025 41.062,12.9897025 45.695,17.4757025 C47.256,18.9967025 48.446,20.6207025 49.307,22.4097025 C50.513,21.3747025 51.969,20.8187025 53.529,20.8187025 C56.834,20.8187025 60.33,23.4127025 60.931,28.3817025 C63.114,28.9317025 65.854,30.0997025 67.788,32.5797025 L66.212,33.8097025 C64.43,31.5237025 61.741,30.5717025 59.8,30.1737025 C59.355,30.0837025 59.028,29.7057025 59.002,29.2537025 C58.741,24.8327025 55.982,22.8187025 53.529,22.8187025 C52.067,22.8187025 50.771,23.5087025 49.78,24.8137025 C49.559,25.1057025 49.199,25.2567025 48.835,25.1987025 C48.474,25.1437025 48.17,24.8967025 48.045,24.5537025 C47.278,22.4637025 46.054,20.6177025 44.302,18.9107025 C40.258,14.9967025 34.676,13.9517025 29.379,16.1197025 C24.93,17.9417025 21.574,22.8507025 21.574,27.5387025 C21.574,28.0797025 21.605,28.6147025 21.668,29.1277025 C21.729,29.6287025 21.405,30.0967025 20.915,30.2187025 C18.333,30.8577025 14,32.8237025 14,38.7997025 C14,39.0017025 13.998,39.2047025 14.018,39.4077025 C14.272,43.9357025 18.072,47.1947025 23.055,47.1947025 L23.055,47.1947025 Z" id="Amazon-Virtual-Private-Cloud_Icon_64_Squid" fill="#FFFFFF"></path>
    </g>
</svg>

<svg xmlns="http://www.w3.org/2000/svg" width="80" height="80"><defs><linearGradient id="a" x1="0%" x2="100%" y1="100%" y2="0%"><stop offset="0%" stop-color="#4D27A8"/><stop offset="100%" stop-color="#A166FF"/></linearGradient></defs><g fill="none" fill-rule="evenodd"><path fill="url(#a)" d="M0 0h80v80H0z"/><path fill="#FFF" d="m61 41.372-5.5-2.2v19.95c1.606-.16 2.901-.687 3.821-1.621 1.7-1.728 1.68-4.261 1.679-4.286V41.372Zm-7.5 17.764V39.172l-5.5 2.2v11.823c.007.207.234 5.357 5.5 5.94Zm9.5-5.941c.003.113.053 3.347-2.235 5.69-1.496 1.533-3.605 2.31-6.265 2.31-6.573 0-8.435-5.218-8.5-7.976V40.695a1 1 0 0 1 .629-.93l7.5-3c.238-.094.504-.094.742 0l7.5 3a1 1 0 0 1 .629.93v12.5Zm3.001-1.966L66 37.872l-11.5-4.6-11.5 4.6v13.323c-.002.09-.135 6.228 3.534 10.004 1.932 1.988 4.612 2.996 7.966 2.996 3.377 0 6.07-1.015 8.004-3.016 3.664-3.792 3.499-9.89 3.497-9.95Zm-2.059 11.339c-2.325 2.407-5.502 3.627-9.442 3.627-3.921 0-7.087-1.216-9.41-3.614-4.259-4.393-4.099-11.133-4.09-11.417v-13.97a1 1 0 0 1 .629-.928l12.5-5c.238-.095.504-.095.742 0l12.5 5a1 1 0 0 1 .629.929v14c.009.25.189 6.978-4.058 11.373ZM23.055 47.195H38v2H23.055c-6.078 0-10.718-4.052-11.031-9.635A8.304 8.304 0 0 1 12 38.8c0-6.87 4.803-9.398 7.604-10.288a15.66 15.66 0 0 1-.03-.973c0-5.453 3.89-11.158 9.047-13.27 6.056-2.48 12.441-1.28 17.074 3.207 1.561 1.52 2.751 3.145 3.612 4.934 1.206-1.035 2.662-1.591 4.222-1.591 3.305 0 6.801 2.594 7.402 7.563 2.183.55 4.923 1.718 6.857 4.198l-1.576 1.23c-1.782-2.286-4.471-3.238-6.412-3.636a.997.997 0 0 1-.798-.92c-.261-4.421-3.02-6.435-5.473-6.435-1.462 0-2.758.69-3.749 1.995a1.001 1.001 0 0 1-1.735-.26c-.767-2.09-1.991-3.936-3.743-5.643-4.044-3.914-9.626-4.96-14.923-2.791-4.449 1.822-7.805 6.73-7.805 11.419 0 .54.031 1.076.094 1.589.061.5-.263.969-.753 1.09C18.333 30.859 14 32.825 14 38.8c0 .202-.002.405.018.608.254 4.528 4.054 7.787 9.037 7.787Z"/></g></svg>
